Adwaita++/apps/16/taxi.svg

<svg height="16" width="16" xmlns="http://www.w3.org/2000/svg">
  <path d="m0 4.8v3.2h3.2v-3.2zm3.2 3.2v3.2h3.2v-3.2zm3.2 0h3.2v-3.2h-3.2zm3.2 0v3.2h3.2v-3.2zm3.2 0h3.2v-3.2h-3.2z" fill="#474747"/>
</svg>

<svg xmlns="http://www.w3.org/2000/svg" width="16" height="16" version="1.1">
 <defs>
  <style id="current-color-scheme" type="text/css">
   .ColorScheme-Text { color: #474747; } .ColorScheme-Highlight { color: #5294e2; }
  </style>
 </defs>
 <path fill="currentColor" class="ColorScheme-Text" d="M 0 4.8 L 0 8 L 3.2 8 L 3.2 4.8 L 0 4.8 Z M 3.2 8 L 3.2 11.2 L 6.4 11.2 L 6.4 8 L 3.2 8 Z M 6.4 8 L 9.6 8 L 9.6 4.8 L 6.4 4.8 L 6.4 8 Z M 9.6 8 L 9.6 11.2 L 12.8 11.2 L 12.8 8 L 9.6 8 Z M 12.8 8 L 16 8 L 16 4.8 L 12.8 4.8 L 12.8 8 Z"/>
</svg>
